assets/svg/icon-large-cli-prompt-dark-gray.svg

<?xml version="1.0" encoding="UTF-8" standalone="no"?>
<svg width="72px" height="64px" viewBox="0 0 72 64" version="1.1" xmlns="http://www.w3.org/2000/svg" xmlns:xlink="http://www.w3.org/1999/xlink">
    <!-- Generator: Sketch 3.8.3 (29802) - http://www.bohemiancoding.com/sketch -->
    <title>dark gray/icon-large-cli-prompt-dark-gray</title>
    <desc>Created with Sketch.</desc>
    <defs></defs>
    <g id="gray" stroke="none" stroke-width="1" fill="none" fill-rule="evenodd">
        <g id="icons,-large-detailed-(gray)" transform="translate(-86.000000, -581.000000)" fill="#242F36">
            <g id="dark-gray/icon-large-cli-prompt-dark-gray" transform="translate(86.000000, 581.000000)">
                <g id="&gt;_">
                    <g id="Page-1">
                        <g id="Stratum-2016_02_16-kg-v1.2">
                            <g id="dashboard">
                                <g id="cli">
                                    <path d="M0,3.5550352 C0,1.59164345 1.58495969,0 3.55074066,0 L67.5603705,0 C69.5213904,0 71.1111111,1.58203125 71.1111111,3.5550352 L71.1111111,60.4449648 C71.1111111,62.4083566 69.5261515,64 67.5603705,64 L3.55074066,64 C1.58972074,64 0,62.4179687 0,60.4449648 L0,3.5550352 L0,3.5550352 Z M1.77777778,8.88233796 C1.77777778,7.90411644 2.58352052,7.11111111 3.55000071,7.11111111 L67.5611104,7.11111111 C68.5398821,7.11111111 69.3333333,7.89017902 69.3333333,8.88233796 L69.3333333,60.4509954 C69.3333333,61.4292169 68.5275906,62.2222222 67.5611104,62.2222222 L3.55000071,62.2222222 C2.57122901,62.2222222 1.77777778,61.4431543 1.77777778,60.4509954 L1.77777778,8.88233796 L1.77777778,8.88233796 Z M32.4153451,32.8544603 C32.4153452,30.4277566 12.1787243,18.1354418 12.1787243,18.1354418 C11.3436379,17.62216 10.6666667,18.0092286 10.6666667,18.9824848 L10.6666667,23.8060549 C10.6666667,24.7871458 11.3476689,26.015595 12.1614521,26.5331618 L20.6058018,31.9037755 C21.431349,32.4288242 21.4364299,33.2925785 20.6058018,33.8405106 L12.1614521,39.4109111 C11.3359049,39.9554916 10.6666667,41.2001271 10.6666667,42.1733833 L10.6666667,46.9969534 C10.6666667,47.9780443 11.3414102,48.3519383 12.1615414,47.8360322 C12.1615414,47.8360322 32.4153449,35.2811641 32.4153451,32.8544603 L32.4153451,32.8544603 Z M34.0450267,51.1200087 C33.0653465,51.1200087 32.2711589,51.9221468 32.2711589,52.8822092 L32.2711589,55.1266884 C32.2711589,56.0999248 33.0554716,56.8888889 34.0450267,56.8888889 L62.2261323,56.8888889 C63.2058123,56.8888889 64,56.0867508 64,55.1266884 L64,52.8822092 C64,51.9089728 63.2156873,51.1200087 62.2261323,51.1200087 L34.0450267,51.1200087 L34.0450267,51.1200087 Z" id="&gt;_"></path>
                                </g>
                            </g>
                        </g>
                    </g>
                </g>
            </g>
        </g>
    </g>
</svg>

<svg width="72" height="64" viewBox="0 0 72 64" xmlns="http://www.w3.org/2000/svg"><title>dark gray/icon-large-cli-prompt-dark-gray</title><path d="M0 3.555A3.55 3.55 0 0 1 3.55 0h64.01a3.547 3.547 0 0 1 3.551 3.555v56.89A3.55 3.55 0 0 1 67.561 64H3.55A3.547 3.547 0 0 1 0 60.445V3.555zm1.778 5.327a1.78 1.78 0 0 1 1.772-1.77h64.011c.979 0 1.772.778 1.772 1.77v51.569a1.78 1.78 0 0 1-1.772 1.771H3.55c-.979 0-1.772-.779-1.772-1.771V8.882zm30.637 23.972c0-2.426-20.236-14.719-20.236-14.719-.835-.513-1.512-.126-1.512.847v4.824c0 .981.68 2.21 1.494 2.727l8.445 5.37c.825.526.83 1.39 0 1.938l-8.445 5.57c-.825.544-1.494 1.79-1.494 2.762v4.824c0 .981.674 1.355 1.495.839 0 0 20.253-12.555 20.253-14.982zm1.63 18.266c-.98 0-1.774.802-1.774 1.762v2.245c0 .973.784 1.762 1.774 1.762h28.181c.98 0 1.774-.802 1.774-1.762v-2.245c0-.973-.784-1.762-1.774-1.762H34.045z" fill="#242F36" fill-rule="evenodd"/></svg>
